X: 133
T: Dimna Juda
T: Kopacka
O: Macedonia
F: http://www.youtube.com/watch?v=vV3ZTTwzbDU
Z: Deborah Jones
M: 4/4
L: 1/4
Q: 1/4=240
K: Am
|: A2 A2    |[Ae][Ae][Ae][Ae]| [A2d2] [Ac][AB]|[Ac][AB] A2|
   G2 [G2c2]|[Gc][GB][GB][GA]|G2 A2           | A2 A2     :|
   G2 [G2c2]|[Gc][GB][GB][GA]|G2 A2           | A2 A2     |



